X:1145
T:Banks of the Ilen
T:Seanbhean na gCartai
T:Carty's Old Wife
R:reel
S:BBC recording of Feakle Session 1987: Noel Hill, Tony Linnane & Mary Bergin
H:Related to the jig "The Humours of Drinagh", #100.
H:Also played as a hornpipe.
Z:id:hn-reel-697
M:C|
K:D
FDFA d2fd|~d2fd ecAG|FDFA dfed|1 dcAF G2AG:|2 dcAF G4||
|:~f3a g2fg|~a3g fdde|~f3a g2fg|~a3f g2fg|
~a3f gfeg|fedf ecAG|FDFA d2fd|1 dcAF G4:|2 dcAF G2AG||


